X: 1
T: For All The Saints
C: Words: William W. How, 1864.
C: Music: 'Sine Nomine' Ralph Vaughan Williams, 1906. Setting: "The English Hymnal", 1906.
C: Arr. for SSAATTBB a cappella with lever harp by Claude Sonnet 4.6, 2026.
C: copyright: public domain.
M: 4/4
L: 1/4
Q: 1/4=120
%%staves {(V1 V2) (V3 V4) (V5 V6) (V7 V8)}
V:1 name="Soprano I"  clef=treble
V:2 name="Soprano II" clef=treble
V:3 name="Alto I"     clef=treble
V:4 name="Alto II"    clef=treble
V:5 name="Tenor I"    clef=treble middle=B3 transpose=-12
V:6 name="Tenor II"   clef=treble middle=B3 transpose=-12
V:7 name="Baritone"   clef=bass
V:8 name="Bass I"     clef=bass
K: G
[V:1] z d B A | G3 D | E G A D | B3 B | A2 A G | F2 F2 | G A F E | D3 D | G2 G G | d3 d | c d c B | A2 (d2 | e) d d2 | G3 (A | c) B A2 | G4 | z d B A | G3 D | E G A D | B4 | A2 A G | F2 F2 | G A F E | D3 D | G2 G2 | d3 d | c d c/ B/ A/ G/ | A2 d2 | e d/ c/ d2 | G3 A/ B/ | c B A2 | G4 |]
[V:2] z B G F | E3 B, | C E F A | G3 G | F2 F E | D2 D2 | E F D C | B,3 B, | B,2 E E | B,2 G2 | E G G F | F2 (B2 | c) B B2 | E3 (F | G) G F2 | G4 | z g e d | c3 G | A c d G | e4 | d2 d c | B2 B2 | c d B A | G3 G | c2 c2 | g3 g | f g f/ e/ d/ c/ | d2 g2 | a g/ f/ g2 | c3 d/ e/ | f e d2 | c4 |]
[V:3] z G E D | C3 G, | G, C D F | E3 E | D2 D C | A,2 A,2 | C D A, A, | F,3 F, | G,2 C C | G,2 G2 | G A G E | D2 (G2 | G) G G2 | C3 (D | E) E D2 | E4 | z f d c | B3 F | G B c F | d4 | c2 c B | A2 A2 | B c A G | F3 F | B2 B2 | f3 f | e f e/ d/ c/ B/ | c2 f2 | g f/ e/ f2 | B3 c/ d/ | e d c2 | B4 |]
[V:4] z G D D | B,3 G, | G, B, C D | D3 D | D2 D B, | D2 C2 | B, C A, A, | A,3 A, | G,2 C B, | G,2 D2 | E E D D | D2 (G2 | G) G G2 | G,3 (A, | C) D D2 | D4 | z e c B | A3 E | F A B E | c4 | B2 B A | G2 G2 | A B G F | E3 E | A2 A2 | e3 e | d e d/ c/ B/ A/ | B2 e2 | f e/ d/ e2 | A3 B/ c/ | d c B2 | A4 |]
[V:5] z D B, A, | G,3 D | G, B, C D | G,3 G, | D2 D E | A,2 A,2 | B, D A, G, | F,3 F, | D2 E G | G,2 D2 | C D E D | A,2 (D2 | E) D D2 | B,3 (B, | C) G, A,2 | B,4 | z c A G | F3 C | D F G C | A4 | G2 G F | E2 E2 | F G E D | C3 C | F2 F2 | c3 c | B c B/ A/ G/ F/ | G2 c2 | d c/ B/ c2 | F3 G/ A/ | B A G2 | F4 |]
[V:6] z G, G, F, | E,3 B,, | E, G, A, D | E,3 E, | A,2 A, G, | F,2 F,2 | G, A, F, E, | D,3 D, | G,2 G, G, | G,,2 G,2 | G, A, G, G, | F,2 (G,2 | G,) G, G,2 | E,3 (F, | G,) G, F,2 | G,4 | z B G F | E3 B, | C E F B, | G4 | F2 F E | D2 D2 | E F D C | B,3 B, | E2 E2 | B3 B | A B A/ G/ F/ E/ | F2 B2 | c B/ A/ B2 | E3 F/ G/ | A G F2 | E4 |]
[V:7] z G, E, D, | C,3 G,, | C, E, F, A, | D,3 D, | F,2 F, E, | D,2 D,2 | E, F, D, C, | A,,3 A,, | G,,2 C, E, | G,,2 G,2 | C, D, E, D, | D,2 (G,2 | C,) G, G,2 | G,,3 (A,, | C,) D, D,2 | D,4 | z A F E | D3 A, | B, D E A, | F4 | E2 E D | C2 C2 | D E C B, | A,3 A, | D2 D2 | A3 A | G A G/ F/ E/ D/ | E2 A2 | B A/ G/ A2 | D3 E/ F/ | G F E2 | D4 |]
[V:8] z G,, B,, C, | G,,3 G,, | C, G,, C, D, | G,,3 G,, | D,2 D, D, | D,2 D,2 | G,, D, D, D, | D,,3 D,, | G,,2 G,, G,, | G,,2 G,,2 | C, A,, G,, G,, | D,2 (G,,2 | C,,) G,, G,,2 | G,,,3 (A,,, | C,,) G,, D,,2 | G,,4 | z G E D | C3 G, | A, C D G, | E4 | D2 D C | B,2 B,2 | C D B, A, | G,3 G, | C2 C2 | G3 G | F G F/ E/ D/ C/ | D2 G2 | A G/ F/ G2 | C3 D/ E/ | F E D2 | C4 |]
